public/images/weather/cloudy-cloud.svg

<svg preserveAspectRatio="none" width="100%" height="100%" overflow="visible" style="display: block;" viewBox="0 0 113.75 61.75" fill="none" xmlns="http://www.w3.org/2000/svg">
<path id="Vector" d="M88.4747 12.35C85.865 12.35 83.356 12.7367 80.9867 13.455C78.1852 5.62575 70.5835 0 61.6135 0C51.9967 0 43.9432 6.47075 41.7137 15.1937C39.2489 13.3524 36.2559 12.3551 33.1792 12.35C25.324 12.35 18.9605 18.5705 18.9605 26.2438C18.9605 28.106 19.3505 29.8773 20.0297 31.5023C18.6531 31.1076 17.2302 30.8967 15.7982 30.875C7.072 30.875 0 37.7845 0 46.3125C0 54.8405 7.072 61.75 15.7982 61.75H88.4715C102.433 61.75 113.75 50.6935 113.75 37.05C113.75 23.4065 102.433 12.35 88.4747 12.35Z" fill="var(--fill-0, #F6FBFE)"/>
</svg>

<svg xmlns="http://www.w3.org/2000/svg" fill="none" overflow="visible" preserveAspectRatio="none" style="display:block" viewBox="0 0 113.75 61.75"><path fill="var(--fill-0, #f6fbfe)" d="M88.475 12.35c-2.61 0-5.119.387-7.488 1.105C78.185 5.625 70.584 0 61.614 0c-9.617 0-17.67 6.47-19.9 15.194a14.3 14.3 0 0 0-8.535-2.844c-7.855 0-14.219 6.22-14.219 13.894 0 1.862.39 3.633 1.07 5.258a16.3 16.3 0 0 0-4.232-.627C7.072 30.875 0 37.785 0 46.313 0 54.84 7.072 61.75 15.798 61.75h72.674c13.961 0 25.278-11.056 25.278-24.7s-11.317-24.7-25.275-24.7"/></svg>
